X: 22170
T: L'Inconnu De Limoise
R: mazurka
M: 3/4
K: Gmajor
|:z/ D/ G>A|B2 B>G (3cBA|B2B>B c>d|c2c>B A>G|D2D>D G>A|
B2 B>G (3cBA|B2B>B c>d|c2c>B A>G|A3:|
|:z/ B/ c>d|e2 g>f e>f|d2d>c B>A|G>F G>A (3BAG|D2D>G G>F|
E2 E>F G>A|G2 F2 E2|1 F2 F>E F>G|A3:|2 F>E F>G A>B|G3||

